public/stats.svg

<svg width="52" height="69" viewBox="0 0 52 69" fill="none" xmlns="http://www.w3.org/2000/svg">
<path fill-rule="evenodd" clip-rule="evenodd" d="M40.8384 50.2057L30.8906 44.4597V6.83984L40.8384 12.5859V50.2057Z" fill="#345BE4"/>
<path fill-rule="evenodd" clip-rule="evenodd" d="M31.3917 44.172L40.3497 49.3454V12.8732L31.3917 7.69983V44.172ZM40.8385 50.7024C40.7551 50.7021 40.6734 50.6789 40.6024 50.6352L30.6387 44.8885C30.5649 44.8441 30.5042 44.7809 30.4628 44.7054C30.4213 44.63 30.4005 44.5448 30.4026 44.4587V6.83972C30.4 6.75304 30.4205 6.66717 30.462 6.59102C30.5035 6.51487 30.5644 6.45111 30.6387 6.40632C30.715 6.36275 30.8013 6.33984 30.8892 6.33984C30.977 6.33984 31.0634 6.36275 31.1397 6.40632L41.0912 12.1524C41.1663 12.1962 41.2288 12.2589 41.2724 12.3342C41.3159 12.4096 41.3391 12.495 41.3395 12.5821V50.2019C41.3392 50.2894 41.3162 50.3754 41.2726 50.4514C41.2291 50.5273 41.1665 50.5907 41.0912 50.6352C41.0132 50.6767 40.9267 50.7002 40.8385 50.7024Z" fill="#345BE4"/>
<path fill-rule="evenodd" clip-rule="evenodd" d="M40.8384 12.5854L30.8906 6.8394L40.9092 1.05078L50.857 6.79673L40.8384 12.5854Z" fill="#D3E5FB"/>
<path fill-rule="evenodd" clip-rule="evenodd" d="M31.8795 6.84019L40.8374 12.0134L49.8748 6.79823L40.9082 1.62497L31.8795 6.84019ZM40.8374 13.083C40.7538 13.0848 40.6715 13.0614 40.6013 13.0158L30.6376 7.26919C30.5645 7.22385 30.5041 7.16057 30.4622 7.08537C30.4204 7.01017 30.3984 6.92547 30.3984 6.8394C30.3984 6.75333 30.4204 6.66871 30.4622 6.59351C30.5041 6.51831 30.5645 6.45504 30.6376 6.4097L40.6692 0.621073C40.7433 0.577586 40.8277 0.554688 40.9136 0.554688C40.9995 0.554688 41.0839 0.577586 41.158 0.621073L51.1059 6.36782C51.1826 6.41029 51.2466 6.47254 51.2912 6.54811C51.3357 6.62368 51.3592 6.70979 51.3592 6.79752C51.3592 6.88525 51.3357 6.97136 51.2912 7.04693C51.2466 7.1225 51.1826 7.18475 51.1059 7.22722L41.0909 13.0151C41.0137 13.0594 40.9264 13.0823 40.8374 13.083Z" fill="#345BE4"/>
<path fill-rule="evenodd" clip-rule="evenodd" d="M30.8182 55.9938L20.8711 50.2472V21.5547L30.8182 27.3007V55.9938Z" fill="#345BE4"/>
<path fill-rule="evenodd" clip-rule="evenodd" d="M21.359 49.963L30.317 55.1399V27.5886L21.359 22.416V49.963ZM30.8174 56.4933C30.7303 56.4912 30.6451 56.4679 30.569 56.4254L20.6175 50.6795C20.5418 50.6353 20.4791 50.572 20.4355 50.4959C20.3919 50.4199 20.369 50.3337 20.3691 50.2461V21.5537C20.3697 21.4672 20.3929 21.3822 20.4365 21.3075C20.4801 21.2327 20.5425 21.1706 20.6175 21.1275C20.6909 21.0824 20.7754 21.0586 20.8616 21.0586C20.9477 21.0586 21.0322 21.0824 21.1056 21.1275L31.0694 26.8743C31.1431 26.9176 31.2038 26.9799 31.2452 27.0547C31.2866 27.1296 31.3072 27.2142 31.3047 27.2997V55.9928C31.3074 56.0794 31.287 56.1652 31.2456 56.2414C31.2043 56.3175 31.1435 56.3813 31.0694 56.4262C30.9914 56.4665 30.9052 56.4883 30.8174 56.4897V56.4933Z" fill="#345BE4"/>
<path fill-rule="evenodd" clip-rule="evenodd" d="M30.8182 27.2999L20.8711 21.5538L30.8904 15.7695L40.8375 21.5156L30.8182 27.2999Z" fill="#D3E5FB"/>
<path fill-rule="evenodd" clip-rule="evenodd" d="M21.8645 21.5539L30.8174 26.7309L39.8425 21.5157L30.8896 16.3424L21.8645 21.5539ZM30.8174 27.7975C30.7301 27.7976 30.6444 27.7744 30.569 27.7304L20.6175 21.9837C20.5423 21.9399 20.4798 21.8772 20.4362 21.8018C20.3926 21.7265 20.3695 21.641 20.3691 21.5539C20.3697 21.4674 20.3929 21.3825 20.4365 21.3078C20.4801 21.233 20.5425 21.1709 20.6175 21.1278L30.6369 15.3399C30.7132 15.2963 30.7995 15.2734 30.8874 15.2734C30.9752 15.2734 31.0616 15.2963 31.1379 15.3399L41.0901 21.086C41.1656 21.1289 41.2284 21.1911 41.2721 21.2662C41.3158 21.3413 41.3388 21.4267 41.3388 21.5135C41.3388 21.6004 41.3158 21.6857 41.2721 21.7608C41.2284 21.8359 41.1656 21.8981 41.0901 21.941L31.0708 27.7297C30.9935 27.7736 30.9063 27.7969 30.8174 27.7975Z" fill="#345BE4"/>
<path fill-rule="evenodd" clip-rule="evenodd" d="M30.8184 55.993V27.2999L40.8377 21.5156V50.2088L30.8184 55.993Z" fill="white"/>
<path fill-rule="evenodd" clip-rule="evenodd" d="M31.3064 27.5862V55.1332L40.348 49.9181V22.3711L31.3064 27.5862ZM30.8175 56.4903C30.7305 56.4881 30.6453 56.4648 30.5692 56.4224C30.4924 56.3792 30.4284 56.3162 30.384 56.24C30.3396 56.1638 30.3162 56.0773 30.3164 55.9891V27.2959C30.3164 27.2089 30.34 27.1234 30.3844 27.0485C30.4289 26.9737 30.4927 26.9122 30.5692 26.8705L40.6015 21.0819C40.6757 21.0385 40.76 21.0156 40.8459 21.0156C40.9318 21.0156 41.0161 21.0385 41.0902 21.0819C41.1662 21.1258 41.2292 21.189 41.2729 21.2651C41.3165 21.3412 41.3392 21.4275 41.3387 21.5152V50.2084C41.3376 50.2947 41.314 50.3793 41.2705 50.4538C41.2269 50.5284 41.1648 50.5904 41.0902 50.6338L31.0709 56.4224C30.9929 56.4645 30.9062 56.4877 30.8175 56.4903Z" fill="#345BE4"/>
<path fill-rule="evenodd" clip-rule="evenodd" d="M40.8379 50.2096V12.5855L50.8565 6.79688V44.4167L40.8379 50.2096Z" fill="white"/>
<path fill-rule="evenodd" clip-rule="evenodd" d="M41.3397 12.874V49.352L50.3648 44.1325V7.66024L41.3397 12.8755V12.874ZM40.8387 50.704C40.755 50.7057 40.6728 50.6823 40.6025 50.6368C40.5251 50.5964 40.4604 50.5352 40.4158 50.46C40.3711 50.3849 40.3483 50.2988 40.3499 50.2114V12.5851C40.347 12.4964 40.3691 12.4087 40.4138 12.332C40.4586 12.2554 40.5239 12.1929 40.6025 12.1517L50.6176 6.36391C50.6924 6.32255 50.7765 6.30078 50.862 6.30078C50.9475 6.30078 51.0316 6.32255 51.1064 6.36391C51.1827 6.4068 51.2463 6.46915 51.2907 6.54464C51.3351 6.62012 51.3587 6.70603 51.3591 6.79361V44.4134C51.3593 44.5016 51.3359 44.5883 51.2915 44.6644C51.2471 44.7406 51.1832 44.8035 51.1064 44.8468L41.0913 50.6347C41.0144 50.6788 40.9274 50.7031 40.8387 50.704Z" fill="#345BE4"/>
<path fill-rule="evenodd" clip-rule="evenodd" d="M30.818 36.2304L20.8709 30.4844L10.8516 36.2687L20.7987 42.0154L30.818 36.2304Z" fill="#D3E5FB"/>
<path fill-rule="evenodd" clip-rule="evenodd" d="M11.8323 36.2681L20.7983 41.4457L29.8284 36.2305L20.8705 31.0536L11.8323 36.2681ZM20.7983 42.5117C20.7106 42.515 20.6239 42.4915 20.5498 42.4445L10.602 36.6978C10.5256 36.6556 10.4618 36.5937 10.4174 36.5185C10.373 36.4433 10.3496 36.3576 10.3496 36.2703C10.3496 36.1829 10.373 36.0972 10.4174 36.022C10.4618 35.9468 10.5256 35.8848 10.602 35.8427L20.617 30.0548C20.691 30.0112 20.7752 29.9883 20.8611 29.9883C20.9469 29.9883 21.0312 30.0112 21.1051 30.0548L31.0689 35.8008C31.1412 35.8468 31.2007 35.9103 31.242 35.9854C31.2832 36.0605 31.3048 36.1448 31.3048 36.2305C31.3048 36.3162 31.2832 36.4006 31.242 36.4757C31.2007 36.5508 31.1412 36.6142 31.0689 36.6602L21.0372 42.4452C20.9656 42.4897 20.8827 42.5128 20.7983 42.5117Z" fill="#345BE4"/>
<path fill-rule="evenodd" clip-rule="evenodd" d="M20.7987 42.0155L10.8516 36.2695V56.036L20.7987 61.782V42.0155Z" fill="#345BE4"/>
<path fill-rule="evenodd" clip-rule="evenodd" d="M11.3438 55.7486L20.2967 60.9219V42.3016L11.3438 37.1283V55.7486ZM20.7986 62.2738C20.7108 62.2775 20.6241 62.2541 20.5502 62.2068L10.6023 56.465C10.5255 56.4217 10.4617 56.3588 10.4173 56.2826C10.3729 56.2065 10.3495 56.1199 10.3496 56.0317V36.2652C10.3502 36.1783 10.374 36.093 10.4184 36.0183C10.4628 35.9435 10.5263 35.882 10.6023 35.8398C10.6764 35.7963 10.7608 35.7734 10.8467 35.7734C10.9326 35.7734 11.017 35.7963 11.0911 35.8398L21.039 41.5866C21.114 41.6299 21.1767 41.6918 21.2209 41.7662C21.2652 41.8407 21.2895 41.9253 21.2917 42.012V61.7778C21.2908 61.8647 21.267 61.9497 21.2226 62.0244C21.1782 62.0991 21.1149 62.1608 21.039 62.2031C20.9672 62.2497 20.8841 62.2743 20.7986 62.2738Z" fill="#345BE4"/>
<path fill-rule="evenodd" clip-rule="evenodd" d="M30.8181 55.9965V36.2344L20.7988 42.0186V61.7844L30.8181 55.9965Z" fill="white"/>
<path fill-rule="evenodd" clip-rule="evenodd" d="M21.2931 42.3045V60.9248L30.3182 55.7089V37.0885L21.2931 42.3045ZM20.8 62.2768C20.7122 62.2804 20.6255 62.257 20.5516 62.2097C20.4751 62.1681 20.4113 62.1065 20.3668 62.0317C20.3223 61.9568 20.2988 61.8714 20.2988 61.7843V42.0185C20.2996 41.9305 20.3233 41.8443 20.3677 41.7683C20.412 41.6923 20.4754 41.6291 20.5516 41.5852L30.5702 35.8008C30.6465 35.7573 30.7328 35.7344 30.8207 35.7344C30.9085 35.7344 30.9949 35.7573 31.0712 35.8008C31.1455 35.8456 31.2065 35.9094 31.248 35.9855C31.2895 36.0617 31.31 36.1475 31.3074 36.2342V55.9964C31.31 56.083 31.2895 56.1688 31.248 56.245C31.2065 56.3211 31.1455 56.3849 31.0712 56.4297L21.0396 62.214C20.9674 62.2575 20.8842 62.2793 20.8 62.2768Z" fill="#345BE4"/>
<path fill-rule="evenodd" clip-rule="evenodd" d="M20.8005 50.9492L10.8534 45.2031L0.826172 50.9874L10.774 56.7378L20.8005 50.9492Z" fill="#D3E5FB"/>
<path fill-rule="evenodd" clip-rule="evenodd" d="M1.81306 50.987L10.771 56.1603L19.8092 50.9495L10.8512 45.7719L1.81306 50.987ZM10.771 57.2307C10.6861 57.2317 10.6028 57.2084 10.5307 57.1635L0.582771 51.4167C0.505754 51.3737 0.441692 51.3108 0.397245 51.2346C0.352798 51.1584 0.329611 51.0717 0.330085 50.9834C0.332231 50.8968 0.356607 50.8122 0.400858 50.7377C0.44511 50.6632 0.507736 50.6013 0.582771 50.558L10.6014 44.7694C10.6755 44.726 10.7599 44.7031 10.8458 44.7031C10.9317 44.7031 11.016 44.726 11.0902 44.7694L21.0374 50.5162C21.1135 50.5602 21.1769 50.6233 21.2212 50.6993C21.2655 50.7753 21.2893 50.8615 21.2901 50.9495C21.2882 51.0367 21.2639 51.1221 21.2196 51.1973C21.1754 51.2725 21.1127 51.3351 21.0374 51.3792L11.018 57.1635C10.9434 57.2082 10.858 57.2315 10.771 57.2307Z" fill="#345BE4"/>
<path fill-rule="evenodd" clip-rule="evenodd" d="M10.7701 56.7346L0.822266 50.9844V61.8234L10.7701 67.5695V56.7346Z" fill="#345BE4"/>
<path fill-rule="evenodd" clip-rule="evenodd" d="M1.32496 61.5395L10.2779 66.7129V57.0192L1.32496 51.8459V61.5395ZM10.771 68.0648C10.6866 68.0654 10.6036 68.0435 10.5306 68.0013L0.582764 62.2553C0.506875 62.211 0.443718 62.1478 0.399441 62.0718C0.355164 61.9959 0.331287 61.9098 0.330078 61.8219V50.9879C0.332224 50.9012 0.356599 50.8166 0.400851 50.7422C0.445103 50.6677 0.507729 50.6058 0.582764 50.5625C0.656875 50.519 0.741243 50.4961 0.827165 50.4961C0.913087 50.4961 0.997454 50.519 1.07157 50.5625L11.0187 56.3092C11.0955 56.3524 11.1595 56.4154 11.2039 56.4915C11.2484 56.5677 11.2716 56.6544 11.2714 56.7425V67.5759C11.271 67.6412 11.2577 67.7058 11.2323 67.766C11.2069 67.8261 11.1699 67.8806 11.1233 67.9264C11.0767 67.9722 11.0215 68.0083 10.9609 68.0326C10.9004 68.057 10.8356 68.0692 10.7703 68.0684L10.771 68.0648Z" fill="#345BE4"/>
<path fill-rule="evenodd" clip-rule="evenodd" d="M20.7988 61.7826V50.9492L10.7715 56.7378V67.5712L20.7988 61.7826Z" fill="white"/>
<path fill-rule="evenodd" clip-rule="evenodd" d="M11.2736 57.0227V66.7121L20.2987 61.4969V51.8032L11.2736 57.0227ZM10.7724 68.064C10.6881 68.0646 10.6051 68.0426 10.532 68.0005C10.4566 67.9565 10.3939 67.8938 10.3496 67.8186C10.3054 67.7434 10.2811 67.6581 10.2793 67.5708V56.7375C10.2801 56.6495 10.3038 56.5632 10.3481 56.4872C10.3925 56.4113 10.4558 56.3481 10.532 56.3041L20.5514 50.5155C20.6254 50.4721 20.7096 50.4492 20.7954 50.4492C20.8812 50.4492 20.9655 50.4721 21.0395 50.5155C21.1156 50.5595 21.179 50.6226 21.2233 50.6986C21.2676 50.7746 21.2914 50.8609 21.2922 50.9488V61.7822C21.2913 61.8691 21.2674 61.9542 21.2231 62.0289C21.1787 62.1036 21.1154 62.1652 21.0395 62.2075L11.0201 68.0005C10.9443 68.0425 10.859 68.0644 10.7724 68.064Z" fill="#345BE4"/>
</svg>

<svg xmlns="http://www.w3.org/2000/svg" width="52" height="69" fill="none" viewBox="0 0 52 69"><path fill="#345be4" fill-rule="evenodd" d="m40.838 50.206-9.947-5.746V6.84l9.947 5.746z" clip-rule="evenodd"/><path fill="#345be4" fill-rule="evenodd" d="m31.392 44.172 8.958 5.173V12.873L31.392 7.7zm9.447 6.53a.45.45 0 0 1-.237-.067L30.64 44.89a.49.49 0 0 1-.236-.43V6.839a.49.49 0 0 1 .236-.433.5.5 0 0 1 .5 0l9.952 5.746a.5.5 0 0 1 .248.43v37.62a.5.5 0 0 1-.248.433.6.6 0 0 1-.252.067" clip-rule="evenodd"/><path fill="#d3e5fb" fill-rule="evenodd" d="M40.838 12.585 30.891 6.84l10.018-5.788 9.948 5.746z" clip-rule="evenodd"/><path fill="#345be4" fill-rule="evenodd" d="m31.88 6.84 8.957 5.173 9.038-5.215-8.967-5.173zm8.957 6.243a.4.4 0 0 1-.236-.067l-9.963-5.747a.506.506 0 0 1 0-.86L40.669.622a.48.48 0 0 1 .489 0l9.948 5.747a.492.492 0 0 1 0 .86L41.09 13.014a.5.5 0 0 1-.254.068M30.818 55.994l-9.947-5.747V21.555l9.947 5.746z" clip-rule="evenodd"/><path fill="#345be4" fill-rule="evenodd" d="m21.359 49.963 8.958 5.177V27.589l-8.958-5.173zm9.458 6.53a.54.54 0 0 1-.248-.068l-9.951-5.745a.5.5 0 0 1-.249-.434V21.554a.5.5 0 0 1 .248-.426.47.47 0 0 1 .489 0l9.963 5.746a.48.48 0 0 1 .236.426v28.693a.49.49 0 0 1-.236.433.6.6 0 0 1-.252.064z" clip-rule="evenodd"/><path fill="#d3e5fb" fill-rule="evenodd" d="m30.818 27.3-9.947-5.746 10.02-5.784 9.947 5.746z" clip-rule="evenodd"/><path fill="#345be4" fill-rule="evenodd" d="m21.865 21.554 8.952 5.177 9.026-5.215-8.953-5.174zm8.952 6.244a.5.5 0 0 1-.248-.068l-9.951-5.746a.5.5 0 0 1-.249-.43.5.5 0 0 1 .248-.426l10.02-5.788a.5.5 0 0 1 .5 0l9.953 5.746a.492.492 0 0 1 0 .855L31.07 27.73a.5.5 0 0 1-.253.067" clip-rule="evenodd"/><path fill="#fff" fill-rule="evenodd" d="M30.818 55.993V27.3l10.02-5.784v28.693z" clip-rule="evenodd"/><path fill="#345be4" fill-rule="evenodd" d="M31.306 27.586v27.547l9.042-5.215V22.371zm-.489 28.904a.54.54 0 0 1-.248-.068.5.5 0 0 1-.253-.433V27.296a.49.49 0 0 1 .253-.425l10.033-5.79a.48.48 0 0 1 .488 0 .5.5 0 0 1 .249.434v28.693a.5.5 0 0 1-.249.426l-10.02 5.788a.6.6 0 0 1-.253.068" clip-rule="evenodd"/><path fill="#fff" fill-rule="evenodd" d="M40.838 50.21V12.586l10.018-5.79v37.62z" clip-rule="evenodd"/><path fill="#345be4" fill-rule="evenodd" d="M41.34 12.874v36.478l9.025-5.22V7.66l-9.025 5.216zm-.501 37.83a.4.4 0 0 1-.236-.067.47.47 0 0 1-.253-.426V12.585a.47.47 0 0 1 .252-.433l10.016-5.788a.5.5 0 0 1 .488 0 .5.5 0 0 1 .253.43v37.62a.5.5 0 0 1-.253.433l-10.015 5.788a.5.5 0 0 1-.252.069" clip-rule="evenodd"/><path fill="#d3e5fb" fill-rule="evenodd" d="m30.818 36.23-9.947-5.746-10.02 5.785 9.948 5.746z" clip-rule="evenodd"/><path fill="#345be4" fill-rule="evenodd" d="m11.832 36.268 8.966 5.178 9.03-5.215-8.957-5.177zm8.966 6.244a.43.43 0 0 1-.248-.068l-9.948-5.746a.489.489 0 0 1 0-.855l10.015-5.788a.48.48 0 0 1 .488 0L31.07 35.8a.51.51 0 0 1 0 .86l-10.032 5.784a.44.44 0 0 1-.239.067" clip-rule="evenodd"/><path fill="#345be4" fill-rule="evenodd" d="m20.799 42.016-9.947-5.746v19.766l9.947 5.746z" clip-rule="evenodd"/><path fill="#345be4" fill-rule="evenodd" d="m11.344 55.749 8.953 5.173v-18.62l-8.953-5.174zm9.455 6.525a.43.43 0 0 1-.249-.067l-9.948-5.742a.5.5 0 0 1-.252-.433V36.265a.49.49 0 0 1 .252-.425.48.48 0 0 1 .49 0l9.947 5.747a.5.5 0 0 1 .253.425v19.766a.49.49 0 0 1-.253.425.44.44 0 0 1-.24.07" clip-rule="evenodd"/><path fill="#fff" fill-rule="evenodd" d="M30.818 55.997V36.233l-10.02 5.785v19.765z" clip-rule="evenodd"/><path fill="#345be4" fill-rule="evenodd" d="M21.293 42.305v18.62l9.025-5.216v-18.62zM20.8 62.277a.43.43 0 0 1-.248-.067.49.49 0 0 1-.253-.426V42.02a.5.5 0 0 1 .253-.434l10.018-5.784a.5.5 0 0 1 .501 0 .49.49 0 0 1 .236.433v19.762a.49.49 0 0 1-.236.434L21.04 62.214a.44.44 0 0 1-.24.063" clip-rule="evenodd"/><path fill="#d3e5fb" fill-rule="evenodd" d="m20.8 50.95-9.947-5.747L.826 50.987l9.948 5.75z" clip-rule="evenodd"/><path fill="#345be4" fill-rule="evenodd" d="m1.813 50.987 8.958 5.173 9.038-5.21-8.958-5.178zm8.958 6.244a.44.44 0 0 1-.24-.068L.583 51.418a.49.49 0 0 1-.253-.434.5.5 0 0 1 .253-.425L10.6 44.769a.48.48 0 0 1 .49 0l9.946 5.747a.5.5 0 0 1 .253.434.51.51 0 0 1-.253.43l-10.019 5.783a.47.47 0 0 1-.247.068" clip-rule="evenodd"/><path fill="#345be4" fill-rule="evenodd" d="m10.77 56.735-9.948-5.75v10.838l9.948 5.747z" clip-rule="evenodd"/><path fill="#345be4" fill-rule="evenodd" d="m1.325 61.54 8.953 5.173v-9.694l-8.953-5.173zm9.446 6.525a.5.5 0 0 1-.24-.064L.583 62.255a.51.51 0 0 1-.253-.433V50.988a.505.505 0 0 1 .497-.492q.13 0 .245.066l9.947 5.747a.5.5 0 0 1 .252.434v10.833a.497.497 0 0 1-.5.492z" clip-rule="evenodd"/><path fill="#fff" fill-rule="evenodd" d="M20.799 61.783V50.949l-10.027 5.789V67.57z" clip-rule="evenodd"/><path fill="#345be4" fill-rule="evenodd" d="M11.274 57.023v9.69l9.025-5.216v-9.694zm-.502 11.041a.5.5 0 0 1-.24-.063.51.51 0 0 1-.253-.43V56.738a.5.5 0 0 1 .253-.434l10.02-5.788a.48.48 0 0 1 .488 0 .5.5 0 0 1 .252.433v10.833a.5.5 0 0 1-.253.426L11.02 68a.5.5 0 0 1-.248.063" clip-rule="evenodd"/></svg>
